X:106
T:Uxbridge
M:4/2
L:1/2
Q:70
C:J.H.Roberts 1848 - 1924
R:Hymn
K:G
E | G E F A | G F E F | G B B
A | B3 B | B d c B | A G F B
| G B A F | E3 ||
